X:1
T:The Cornerhouse Jig
C:Andrew Rankine
R:Jig
B:The Complete Andrew Rankine Collection
Z:arr. Terry Traub 4-15-02
M:6/8
K:D
L: 1/8
B|: "D" Add dcd| fed A2 d| "Em" Bee edB| "Em" Bee "A7" cBA| \
  "D" Add dcd| fed A2 d| "G" Bed "A"cBc| "D" d3-d2 :|
|:A/G/ | "D" FAA AFD| "G"GBB BAG| "A"Acc cBc| \
  "D"dcd "A7"BAG|"D"FAA AFD| "G"GBB BAG| "D"Add "A7"cBc|"D"d3-d2:|
